icon-themes/sifr_svg/cmd/sc_datafilterremovefilter.svg

<svg viewBox="0 0 16 16" xmlns="http://www.w3.org/2000/svg"><path d="m3.0957031.00390625c-1.06041.55377-1.4051983 1.75763685-.7929687 2.71679685l4.4199218 7.2792969-.3652343.496094c-.6356693-.9008088-1.6801815-1.496094-2.8574219-1.496094-1.9209319 0-3.5 1.577237-3.5 3.498047s1.5790681 3.5 3.5 3.5c1.2266412 0 2.3079035-.647646 2.9335938-1.613281l1.5664062-2.417969 1.578125 2.484375.0136719-.019531c.6299831.940892 1.7004831 1.566406 2.9082031 1.566406 1.920932 0 3.5-1.57919 3.5-3.5s-1.579068-3.498047-3.5-3.498047c-1.183679 0-2.234548.600647-2.8691406 1.509766l-.3535156-.509766 4.4218752-7.2792969c.61222-.95916.265498-2.16302685-.794922-2.71679685l-4.904297 7.99609375zm.4042969 10.99609375c.7906623 0 1.4143472.585557 1.4863281 1.353516l-.0097656.013672.0117187.019531c.0027106.037573.0117188.072953.0117188.111328 0 .839489-.6595082 1.5-1.5 1.5s-1.5-.660511-1.5-1.5.6595082-1.498047 1.5-1.498047zm9 0c.840492 0 1.5.658558 1.5 1.498047s-.659508 1.5-1.5 1.5-1.5-.660511-1.5-1.5.659508-1.498047 1.5-1.498047z" fill="#555753"/></svg>

<svg xmlns="http://www.w3.org/2000/svg" viewBox="0 0 16 16">
 <path
     style="fill:#555753"
     d="M 3.0957031 0.00390625 C 2.0352931 0.55767625 1.6905048 1.7615431 2.3027344 2.7207031 L 6.7226562 10 L 6.3574219 10.496094 C 5.7217526 9.5952852 4.6772404 9 3.5 9 C 1.5790681 9 0 10.577237 0 12.498047 C 0 14.418857 1.5790681 15.998047 3.5 15.998047 C 4.7266412 15.998047 5.8079035 15.350401 6.4335938 14.384766 L 8 11.966797 L 9.578125 14.451172 L 9.5917969 14.431641 C 10.22178 15.372533 11.29228 15.998047 12.5 15.998047 C 14.420932 15.998047 16 14.418857 16 12.498047 C 16 10.577237 14.420932 9 12.5 9 C 11.316321 9 10.265452 9.600647 9.6308594 10.509766 L 9.2773438 10 L 13.699219 2.7207031 C 14.311439 1.7615431 13.964717 0.55767625 12.904297 0.00390625 L 8 8 L 3.0957031 0.00390625 z M 3.5 11 C 4.2906623 11 4.9143472 11.585557 4.9863281 12.353516 L 4.9765625 12.367188 L 4.9882812 12.386719 C 4.9909918 12.424292 5 12.459672 5 12.498047 C 5 13.337536 4.3404918 13.998047 3.5 13.998047 C 2.6595082 13.998047 2 13.337536 2 12.498047 C 2 11.658558 2.6595082 11 3.5 11 z M 12.5 11 C 13.340492 11 14 11.658558 14 12.498047 C 14 13.337536 13.340492 13.998047 12.5 13.998047 C 11.659508 13.998047 11 13.337536 11 12.498047 C 11 11.658558 11.659508 11 12.5 11 z "
     />
 </svg>
